X: 69
T: Song of Affection (b)
N: Derived from pawnee69.krn
O: Oklahoma, U.S.A.
N: from Pawnee Music by Frances Densmore, 1926
Z: transcribed to **kern format by David Huron, August 2000
C: Skidi and Chaui Bands, 1919
L: 1/8
M: 3/4
Q: 1/4=88
K: Bb clef=bass
%%linebreak <none>
F F F D C3/ F/ | 
(3F D CC2C2 | 
F F F D C3/ F/ | 
(3F D CC2C2 | 
B, B, B, G, F,3/ B,/ | 
(3B, G, F,F,2F,2 | 
C C C CB,2 | 
C C C C B,3/ B,/ | 
(3B, G, F,F,2F,2 | 
B, B, B, G, F,3/ B,/ | 
(3B, G, F,F,2F,2 | 
D, D, D, C, B,,3/ D,/ | 
(3D, C, B,,B,,2B,,2 | 
F, F, F, F,E,2 | 
F, F, F, F, E,3/ E,/ | 
(3E, C, B,,B,,2B,,2 | 
F, F, F, D, C,3/ F,/ | 
(3F, D, C,C,2C,2 | 
B,, B,, B,, G,, F,,3/ B,,/ | 
(3B,, G,, F,,F,,2F,,2 | 
C, C, C, C,B,,2 | 
C, C, C, C, B,,3/ B,,/ | 
(3B,, G,, F,,F,,2F,,2 | 
B,, B,, B,, G, F,,3/ B,,/ | 
(3B,, G,, F,,F,,2F,,2 |]  



